X:1
T: Hornpipe
P:Kerr's 2nd #393
R:Reel
Q: 232
K:Bb
M:4/4
L:1/8
|:B2 ((3DFB) d2 cB|Ac BG F2 ^F2|((3GGG) GB ed cB|Af =ef ((3agf) ((3_edc)|
B2 ((3DFB) d2 cB|Ac BG F2 ^F2|((3GAB) ((3=Bcd) eF GA|B2 d2 B2 ba|
gd Bd GB dg|^fe cA ^F2 e2|((3ded) ((3cdc) ((3BcB) ((3ABA)|GA Bc d2 ba|
gd Bd GB dg|^fe cA ^F2 e2|((3ded) ((3cdc) ((3BcB) ((3ABA)|G2 B2 G4:|
